assets/svg/careers_03.svg

<?xml version="1.0" encoding="UTF-8"?>
<svg width="48px" height="41px" viewBox="0 0 48 41" version="1.1" xmlns="http://www.w3.org/2000/svg" xmlns:xlink="http://www.w3.org/1999/xlink">
  <g id="Full-page" stroke="none" stroke-width="1" fill="none" fill-rule="evenodd">
      <g id="asam." transform="translate(-922.000000, -12627.000000)" fill-rule="nonzero" fill="currentColor">
        <g id="Carrers" transform="translate(375.000000, 11983.000000)">
          <g id="03" transform="translate(547.000000, 644.000000)">
            <g id="heart">
              <path d="M44.2575,4.0425 C41.73,1.457625 38.3491875,0.03403125 34.7375625,0.03403125 C31.181625,0.03403125 27.8382188,1.419 25.3230938,3.93421875 L24.0250312,5.233125 L22.72575,3.93384375 C20.2108125,1.41890625 16.8680625,0.0339375 13.3131563,0.0339375 C9.757125,0.0339375 6.4138125,1.41890625 3.8990625,3.93384375 C1.3846875,6.448125 0,9.79115625 0,13.3471875 C0,16.9032187 1.3846875,20.24625 3.8990625,22.7605312 L20.538,39.399375 C21.4992188,40.3604062 22.7614687,40.8409687 24.024,40.8409687 C25.28625,40.840875 26.5487812,40.3604062 27.5097187,39.3994687 L44.0415,22.8691875 C49.2338437,17.6766562 49.3307813,9.2311875 44.2575,4.0425 Z M42.2984063,21.1261875 L25.7667187,37.6566562 C24.8056875,38.6175937 23.2419375,38.6175937 22.281,37.6565625 L5.64196875,21.0174375 C3.59315625,18.9687187 2.464875,16.2447187 2.464875,13.3470937 C2.464875,10.4494687 3.59315625,7.72546875 5.64196875,5.67665625 C7.69115625,3.627375 10.4155312,2.4988125 13.3131562,2.4988125 C16.2096563,2.4988125 18.9334687,3.627375 20.98275,5.67665625 L22.2826875,6.97659375 L20.2920938,8.9686875 C19.8109687,9.4501875 19.8113438,10.2304687 20.29275,10.7115937 C20.5334063,10.9520625 20.8485938,11.07225 21.163875,11.07225 C21.4795313,11.07225 21.795,10.9516875 22.0356563,10.7109375 L27.0660938,5.6765625 C29.115375,3.62728125 31.8396563,2.49871875 34.7372813,2.49871875 C37.68,2.49871875 40.4349375,3.65896875 42.4948125,5.765625 C46.6288125,9.99346875 46.5405937,16.8840937 42.2984063,21.1261875 Z" id="Shape"></path>
              <path d="M43.7146875,12.7877812 C43.5792188,10.5959062 42.650625,8.53471875 41.0999063,6.9838125 C40.0019063,5.8858125 38.6394375,5.088 37.1599688,4.67615625 C36.5041875,4.49371875 35.8247813,4.8774375 35.6423438,5.53321875 C35.4599063,6.18890625 35.843625,6.86840625 36.4994063,7.05084375 C37.5706875,7.348875 38.5588125,7.92834375 39.3570938,8.726625 C40.4824688,9.852 41.1563438,11.3481562 41.2546875,12.9395625 C41.2950937,13.5930937 41.837625,14.0960625 42.4836563,14.0960625 C42.5091563,14.0960625 42.5349375,14.0953125 42.5608125,14.093625 C43.240125,14.0519062 43.7566875,13.4671875 43.7146875,12.7877812 Z" id="Shape"></path>
          </g>
        </g>
      </g>
    </g>
  </g>
</svg>

<svg xmlns='http://www.w3.org/2000/svg'><g fill='currentColor'><path d='M44.258 4.043a13.214 13.214 0 0 0-9.52-4.009c-3.556 0-6.9 1.385-9.415 3.9l-1.298 1.3-1.3-1.3a13.225 13.225 0 0 0-9.412-3.9c-3.556 0-6.9 1.385-9.414 3.9A13.225 13.225 0 0 0 0 13.347c0 3.556 1.385 6.9 3.9 9.414l16.638 16.638a4.915 4.915 0 0 0 3.486 1.442c1.262 0 2.525-.48 3.486-1.442L44.04 22.87c5.193-5.192 5.29-13.638.217-18.826zm-1.96 17.083l-16.531 16.53a2.466 2.466 0 0 1-3.486 0L5.642 21.018a10.776 10.776 0 0 1-3.177-7.67c0-2.898 1.128-5.622 3.177-7.67A10.778 10.778 0 0 1 13.313 2.5c2.897 0 5.62 1.128 7.67 3.178l1.3 1.3-1.99 1.992a1.232 1.232 0 0 0 1.743 1.742l5.03-5.034A10.778 10.778 0 0 1 34.737 2.5c2.943 0 5.698 1.16 7.758 3.267 4.134 4.227 4.046 11.118-.197 15.36z'/><path d='M43.715 12.788a9.001 9.001 0 0 0-6.555-8.112 1.232 1.232 0 1 0-.66 2.375 6.529 6.529 0 0 1 2.857 1.676 6.522 6.522 0 0 1 1.898 4.213 1.232 1.232 0 0 0 2.46-.152z'/></g></svg>
